icons/vm-settings.svg

<svg width="24" height="24" viewBox="0 0 22 22" fill="none"
     xmlns="http://www.w3.org/2000/svg">
<g id="Settings Blak">
<g id="Group 6">
<g id="Group 3">
<mask id="mask0_0_899" style="mask-type:luminance" maskUnits="userSpaceOnUse" x="0" y="0" width="22" height="22">
<path id="Clip 2" fill-rule="evenodd" clip-rule="evenodd" d="M0 0.104088H21.9737V22H0V0.104088Z" fill="white"/>
</mask>
<g mask="url(#mask0_0_899)">
<path id="Fill 1" fill-rule="evenodd" clip-rule="evenodd" d="M4.47676 11.0806C4.45165 7.54146 7.3315 4.65213 10.9091 4.62729C14.4868 4.60269 17.4073 7.45157 17.4324 10.9907C17.4324 11.0073 17.4326 11.0236 17.4326 11.0402C17.4328 11.4023 17.4022 11.764 17.3417 12.1212L20.9693 15.7406C20.9808 15.7219 20.9904 15.7023 20.998 15.6815C21.2262 15.0648 21.4524 14.4473 21.6772 13.8292C21.7248 13.687 21.658 13.5323 21.5217 13.4673C20.9813 13.0698 20.4457 12.6701 19.9004 12.2845C19.7409 12.1825 19.6572 11.9971 19.6876 11.8114C19.7115 11.6245 19.7187 11.4376 19.7283 11.2507C19.7285 11.0958 19.823 10.956 19.9674 10.8959C20.5509 10.6073 21.132 10.3187 21.7107 10.023C21.8058 9.9591 21.8943 9.88529 21.9737 9.80297V9.59006C21.902 9.29673 21.8302 9.00576 21.7633 8.71006C21.6867 8.37888 21.6198 8.0477 21.5457 7.71652C21.5342 7.5514 21.3897 7.42649 21.2228 7.43738C20.5485 7.39479 19.8741 7.34985 19.1998 7.312C19.0307 7.31768 18.8738 7.22518 18.798 7.07544C18.7263 6.93114 18.6474 6.7892 18.5589 6.64963C18.4666 6.51125 18.4666 6.33146 18.5589 6.19307C18.8985 5.63006 19.2333 5.06232 19.5704 4.49695C19.6883 4.36471 19.6754 4.16292 19.542 4.0463C19.5327 4.03826 19.5231 4.03069 19.513 4.02383L18.1787 2.66598C18.0885 2.52617 17.9006 2.48501 17.7595 2.57443C17.7461 2.58271 17.7337 2.59193 17.722 2.60211C17.1457 2.92146 16.567 3.23845 15.993 3.56254C15.8429 3.66591 15.6434 3.66591 15.4933 3.56254C15.3641 3.48211 15.2302 3.41114 15.0963 3.32598C14.9576 3.2491 14.8763 3.09959 14.8883 2.94275C14.8691 2.29458 14.8452 1.64168 14.8261 0.988773C14.8261 0.678881 14.7735 0.633935 14.465 0.560601L12.7289 0.141892C12.6969 0.131719 12.6658 0.119182 12.6357 0.104042H12.4204C12.3427 0.194408 12.2715 0.289978 12.2076 0.390279C11.9046 0.940752 11.6067 1.49264 11.3133 2.04619C11.2544 2.21841 11.0818 2.32604 10.8996 2.30404C10.7319 2.29766 10.5638 2.30475 10.3974 2.32533C10.2365 2.34284 10.0801 2.26477 9.99804 2.12662C9.61783 1.57544 9.23283 1.02662 8.85022 0.470709C8.77752 0.309849 8.58646 0.237698 8.42361 0.309849C8.41261 0.31458 8.40161 0.320257 8.39109 0.326408L6.61674 0.927268C6.46083 0.947139 6.35083 1.08813 6.37067 1.24236C6.37235 1.25419 6.3745 1.26578 6.37761 1.27738C6.42304 1.88297 6.45891 2.49092 6.52348 3.09415C6.59593 3.3617 6.468 3.64273 6.21739 3.76598C6.07989 3.84381 5.94956 3.93322 5.82761 4.03329C5.69202 4.14211 5.50407 4.16056 5.34935 4.0806C4.73478 3.82512 4.12022 3.572 3.50565 3.31888C3.36098 3.21574 3.15915 3.24839 3.05513 3.3915C3.04461 3.40593 3.03528 3.42131 3.02739 3.43716L1.91304 4.82103C1.78104 4.92346 1.75785 5.11224 1.86115 5.24282C1.87622 5.26198 1.89367 5.27925 1.91304 5.29415C2.30283 5.80748 2.69022 6.32318 3.08478 6.83178C3.20339 6.96095 3.22993 7.14854 3.15174 7.3049C3.04174 7.54146 2.9437 7.77802 2.84565 8.0335C2.79472 8.17426 2.66798 8.27503 2.51804 8.29372C1.85804 8.40963 1.19804 8.53028 0.538043 8.65092C0.350565 8.64501 0.193935 8.79049 0.187957 8.97596C0.187478 8.9892 0.187717 9.00221 0.188913 9.01522C0.133913 9.48834 0.0813043 9.96146 0.0263043 10.418C0.0198478 10.458 0.011 10.4975 0 10.5363V11.0236L1.17413 11.44C1.485 11.5511 1.79348 11.6765 2.10435 11.7759C2.26122 11.8241 2.37385 11.9599 2.3913 12.1212C2.44152 12.4193 2.49891 12.7197 2.5563 13.0178C2.59433 13.1846 2.53311 13.358 2.39848 13.4649C1.91304 13.9073 1.43478 14.3591 0.956522 14.8086C0.810413 14.898 0.765217 15.0875 0.855609 15.2318C0.862304 15.2426 0.869717 15.2528 0.877609 15.2628L1.65 16.7602C1.69137 16.9156 1.8523 17.0083 2.00941 16.9674C2.02472 16.9634 2.03954 16.9582 2.05413 16.9518C2.70935 16.8077 3.36217 16.6632 4.015 16.5141C4.15537 16.4746 4.30626 16.5191 4.40239 16.6277L5.11978 17.3729C5.22906 17.4765 5.26972 17.6321 5.225 17.775C5.05283 18.4303 4.88783 19.0879 4.72283 19.7455C4.66113 19.8901 4.72928 20.0566 4.87515 20.1177C4.8785 20.1191 4.88209 20.1203 4.88543 20.1217L6.38478 20.9664C6.50674 21.0663 6.68752 21.0497 6.78891 20.9291C6.79489 20.9222 6.80039 20.9149 6.80565 20.9073C7.28391 20.4342 7.74304 19.9611 8.20696 19.4879C8.3172 19.3581 8.49415 19.3041 8.65891 19.3507C8.97456 19.4262 9.29261 19.4974 9.61543 19.5634C9.77517 19.5899 9.9043 19.7065 9.94543 19.8615C10.1463 20.4718 10.3543 21.0797 10.5528 21.6901C10.5849 21.8173 10.6643 21.928 10.7752 22H11.538L12.3367 21.9077L12.638 21.8675C12.8172 21.8822 12.974 21.7502 12.9886 21.5732C12.9891 21.5687 12.9893 21.5644 12.9896 21.56C13.1259 20.9212 13.2646 20.2802 13.3913 19.637C13.4167 19.4605 13.5441 19.3155 13.7165 19.2653C13.8409 19.223 13.9557 19.1778 14.0872 19.1305L12.2793 17.3279C11.8578 17.4091 11.4292 17.4478 11 17.4438C7.42237 17.4687 4.50187 14.6198 4.47676 11.0806Z" fill="#ABABAB"/>
</g>
</g>
<path id="Fill 4" fill-rule="evenodd" clip-rule="evenodd" d="M19.5149 17.2738C18.7052 16.4707 19.5149 17.2572 18.7052 16.4585L18.4261 16.1825C17.5664 15.33 18.6758 16.4328 17.811 15.5803C16.8711 14.654 15.9265 13.7325 14.9888 12.8038C14.5199 12.3623 14.285 11.733 14.3528 11.0988C14.3528 11.0131 14.3583 10.9283 14.3695 10.844C14.3829 10.5921 14.3732 10.3395 14.3404 10.0892C14.054 7.97466 11.7684 6.51734 9.70184 7.14837C9.44173 7.22695 9.42497 7.2841 9.61684 7.47222C10.088 7.93894 10.5616 8.40495 11.0376 8.87C11.5185 9.28576 11.5651 10.0049 11.1411 10.4766C11.1139 10.5069 11.085 10.5359 11.0546 10.5631C10.8725 10.7464 10.6903 10.925 10.5082 11.1084C9.94471 11.6703 9.26444 11.6679 8.70123 11.1084C8.26066 10.6688 7.81695 10.2321 7.37031 9.79868C7.20492 9.63914 7.15392 9.65343 7.08834 9.87012C7.02301 10.1278 6.99362 10.393 7.00115 10.6583C6.97492 11.9885 7.70498 13.2227 8.89528 13.8611C9.49589 14.1842 10.1762 14.3368 10.8603 14.3016H11.0204C11.5979 14.2754 12.1582 14.4971 12.5555 14.9088L14.2775 16.6042L16.4271 18.7042L17.2368 19.5122C17.8299 20.1335 18.8242 20.1656 19.4578 19.5839C19.4773 19.566 19.4962 19.5477 19.5149 19.5289C20.1498 18.9224 20.1634 17.9258 19.5445 17.3031C19.5348 17.2931 19.5249 17.2834 19.5149 17.2738Z" fill="black"/>
</g>
</g>
</svg>

<svg xmlns="http://www.w3.org/2000/svg" width="24" height="24" fill="none" viewBox="0 0 22 22">
    <g id="Settings Blak">
        <g id="Group 6">
            <g id="Group 3">
                <mask id="mask0_0_899" width="22" height="22" x="0" y="0" maskUnits="userSpaceOnUse" style="mask-type:luminance">
                    <path id="Clip 2" fill="#fff" fill-rule="evenodd" d="M0 .104h21.974V22H0z" clip-rule="evenodd"/>
                </mask>
                <g mask="url(#mask0_0_899)">
                    <path id="Fill 1" fill="#ABABAB" fill-rule="evenodd" d="M4.477 11.08c-.025-3.539 2.855-6.428 6.432-6.453 3.578-.024 6.498 2.825 6.523 6.364v.05q0 .543-.09 1.08l3.627 3.62a.3.3 0 0 0 .029-.06q.342-.924.68-1.852a.3.3 0 0 0-.156-.362c-.54-.397-1.076-.797-1.622-1.183a.47.47 0 0 1-.212-.473c.024-.187.03-.373.04-.56 0-.155.095-.295.24-.355.583-.289 1.164-.577 1.743-.873q.143-.096.263-.22V9.59q-.11-.438-.21-.88c-.077-.331-.144-.662-.218-.993a.303.303 0 0 0-.323-.28c-.674-.042-1.349-.087-2.023-.125a.43.43 0 0 1-.402-.237 5 5 0 0 0-.24-.425.41.41 0 0 1 0-.457q.508-.846 1.012-1.696a.317.317 0 0 0-.057-.473l-1.334-1.358a.305.305 0 0 0-.457-.064c-.576.32-1.155.636-1.729.96a.44.44 0 0 1-.5 0c-.129-.08-.263-.15-.397-.236a.4.4 0 0 1-.208-.383c-.019-.648-.043-1.301-.062-1.954 0-.31-.053-.355-.361-.428L12.729.14a1 1 0 0 1-.093-.037h-.216q-.116.136-.212.286-.454.826-.895 1.656a.39.39 0 0 1-.413.258q-.252-.01-.503.021a.41.41 0 0 1-.399-.198c-.38-.552-.765-1.1-1.148-1.656-.072-.16-.264-.232-.426-.16L8.39.326 6.617.927a.282.282 0 0 0-.24.35c.046.606.082 1.214.146 1.817a.58.58 0 0 1-.306.672 3 3 0 0 0-.39.267.44.44 0 0 1-.478.048l-1.843-.762a.325.325 0 0 0-.479.118L1.913 4.821a.298.298 0 0 0 0 .473c.39.513.777 1.03 1.172 1.538a.42.42 0 0 1 .067.473c-.11.236-.208.473-.306.729a.4.4 0 0 1-.328.26q-.99.175-1.98.357a.34.34 0 0 0-.35.364c-.054.473-.107.946-.162 1.403q-.01.06-.026.118v.488l1.174.416c.311.111.62.237.93.336.157.048.27.184.287.345.05.298.108.599.165.897a.44.44 0 0 1-.158.447c-.485.442-.963.894-1.441 1.344a.305.305 0 0 0-.08.454l.773 1.497a.294.294 0 0 0 .404.192q.982-.215 1.961-.438a.38.38 0 0 1 .387.114l.718.745c.11.104.15.26.105.402q-.256.983-.502 1.97a.283.283 0 0 0 .152.373l.01.004 1.5.844a.29.29 0 0 0 .42-.059c.479-.473.938-.946 1.402-1.42a.44.44 0 0 1 .452-.136q.474.113.956.212a.41.41 0 0 1 .33.299c.201.61.41 1.218.608 1.828a.52.52 0 0 0 .222.31h.763l.799-.092.301-.04a.324.324 0 0 0 .35-.295l.002-.013c.136-.639.275-1.28.401-1.923a.46.46 0 0 1 .325-.372c.125-.042.24-.087.371-.134l-1.808-1.803q-.633.122-1.279.116c-3.578.025-6.498-2.824-6.523-6.363" clip-rule="evenodd"/>
                </g>
            </g>
            <path id="Fill 4" fill="#000" fill-rule="evenodd" d="M19.515 17.274c-.81-.803 0-.017-.81-.816l-.279-.275c-.86-.853.25.25-.615-.603-.94-.926-1.884-1.848-2.822-2.776a2.04 2.04 0 0 1-.636-1.705q0-.128.017-.255a4 4 0 0 0-.03-.755c-.286-2.114-2.572-3.572-4.638-2.94-.26.078-.277.135-.085.323q.707.7 1.42 1.398a1.123 1.123 0 0 1 .018 1.693c-.182.183-.365.362-.547.545-.563.562-1.244.56-1.807 0q-.66-.66-1.33-1.31c-.166-.159-.217-.145-.283.072a3 3 0 0 0-.087.788 3.56 3.56 0 0 0 1.894 3.203c.6.323 1.281.476 1.965.44h.16a2 2 0 0 1 1.536.608l1.722 1.695 2.15 2.1.809.808a1.593 1.593 0 0 0 2.278.017 1.55 1.55 0 0 0 0-2.255" clip-rule="evenodd"/>
        </g>
    </g>
</svg>
